X:5948
T:Gan ainm
R:Reel
S:
H:
N:
D:Mike Rafferty
Z:Adrian Scahill
M:4/4
L:1/8
K:G
G3A GEDE|G2BG AedB|AEE2 A2(3Bcd|egfa gedB|\
G3A GEDE|G2(3Bcd efge|dGG2 EGDG|FGAF G4:||\
dgg2 edBA|GEDE G2(3Bcd|eaab aged|BA (3Bcd e2ge|\
dgg2 agbg|aged e2ge|dGG2 EGDG|FGAF G4:||
